X: 12048
T: Eroticon VI
R: reel
M: 4/4
K: Adorian
E AA/A/A AGED|E AA/A/A AGED|EAA/A/A BAA/A/A|cAA/A/A dAe2|
E AA/A/A AGED|EAA/A/A AGED|EG F/G/A G2B/c/d|~e3c dcAG|
E3A AGED|EAA/A/A AGED|E3A BAA/A/A|cAA/A/A dAe2|
e3d cA d2 -|d3A BAGA|BB/B/BG cc/c/cA|dd/d/dc dege|
|:{g}a3g edcA|~d3c dege|{g}a3g edcA|dege {g}a2z2|
{g}a3g edcA|~d3c degz|a_bag edce|1 dcAG Acde:|2 dcAG AGED||

